X:1
T:12 Lieder, 1786   (alternative title: Zwölf Lieder auf ihrer Reise in Musik gesetzt)
T:An meine entfernte Lieben
T:12. An meine entfernte Lieben 
T:Maria Theresia von Paradis
T:12 Lieder, 1786 (Zwölf Lieder auf ihrer Reise in Musik gesetzt) 
T:Johann Riedinger
T:NOTE TO TRANSCRIBER: Please transcribe the notes as shown in the IMSLP edition, into the Soprano clef staves shown on this template. During review, any corrections will be made in the Soprano clef staves.  The reviewer will then change the Soprano clefs into normal Treble clef staves before the score is published to the OpenScore Lieder Corpus. For the verses, you can copy the lyrics from Lieder.net: https://www.lieder.net/lieder/get_text.html?TextId=28336 
T:Creative Commons copyright waiver (CC0 1.0 Universal)
C:Maria Theresia von Paradis
Z:Johann Riedinger
Z:Creative Commons copyright waiver (CC0 1.0 Universal)
%%score 1 2
L:1/8
M:2/4
K:C
V:1 alto1 nm="Singstimme\nVoice"
V:2 bass nm="Pianoforte"
V:1
"^A3""^Soprano clef" A,"^B3"B,"^C4" C"^D4"D |"^E4" E"^F4"F"^G4" G"^A4"A | %2
w: ||
"^B4" B"^C5"c"^D5" d"^E5"e |"^F5" f"^G5"g"^A5" a z |[K:G][M:6/8][Q:1/4=50]"^Larghetto" B | %5
w: ||Ihr|
 B>c B (ed) c | (cB) B B2 B/G/ | F2 G A2 B | A3 G z B | c>B c ed c | cB B B2 B | BA A A2 G | %12
w: Lie- * ben, die * ich|Schwer- * muts- voll an *|mei- nen Bu- sen|seh- ne, em-|pfangt * den klei- * nen|Freund- * schafts- zoll, sammt|ei- * ner Freund- schafts-|
{A} G3 F2 z | z6 | z6 | z6 | z6 | z6 | z6 | z6 | z6 |] %21
w: trä- ne;|||||||||
V:2
"^<------    Please delete these four measures before you upload your transcription for review    ------>" z4 | %1
 z4 | z4 | z4 |[K:G][M:6/8] z | z6 | z6 | z6 | z6 | z6 | z6 | z6 | z6 | z6 | z6 | z6 | z6 | z6 | %18
 z6 | z6 | z6 |] %21

